!!!OTL: ES WAREN DREI TAMBORN
!!!ARE: Europa, Mitteleuropa, Deutschland, Hessen, Dill - Kreis; Wetzlar
!!!SCT: E0852
!!!YEM: Copyright 1995, estate of Helmut Schaffrath.
**kern
*ICvox
*Ivox
*M2/4
*k[f#]
*G:
{8d
=1
8g
8b
8b
8b
=2
4.b}
{8dd
=3
8dd
8dd
8cc
8b
=4
4dd
8cc}
{8b
=5
8dd
8a
8a
8a
=6
4.a}
{8ee
=7
8ee
8ee
8dd
8cc
=8
4dd
8b}
{16b
16b
=9
8b
16b
16b
8b
16b
16b
=10
8b
8b
8b}
{8b
=11
8b
8b
8a
8b
=12
4dd
4cc
=13
4b
8r}
==
!!!AGN: Hochzeits -, Ehestands - Lied
!!!ONB: ESAC (Essen Associative Code) Database: ERK2
!!!AMT: simple duple
!!!AIN: vox
!!!EED: Helmut Schaffrath
!!!EEV: 1.0
*-
